X:1791
T:Bold Deserter, The
T:An Treigteoir Dana
C:"collected by Mrs Cantwell"
S:1791 O'Neill's Music of Ireland
N:Lead-in to second part should probably be 1/16th notes not 1/8th notes
B:O'Neill's 1791
Z:Transcribed by Robert Thorpe (thorpe@skep.com)
Z:ABCMUS 1.0
M:2/4
Q:60
K:D
f/-e/|dA BA/-F/|A/B/d/e/ f/e/d/B/|A/F/d/B/ A/F/D/F/|EE/E/ E/G/F/E/|
dA BA/-F/|A/B/d/e/ f/e/d/B/|A/F/d/B/ A/F/E/F/|DD/D/ D:|
|:D-E|FA de/-f/|g/f/g/e/ dd/-e/|f/e/d/B/ A/F/E/F/|AA/A/ AD/-E/|
FA de/-f/|g/f/g/e/ dd/-e/|f/e/d/B/ A/F/D/F/|EE/E/ E/G/F/E/|
dA BG/-F/|A/B/d/e/ f/e/d/B/|A/F/d/B/ A/F/E/F/|DD/D/ D:|


